svgs/light/naira-sign.svg

<svg xmlns="http://www.w3.org/2000/svg" viewBox="0 0 448 512"><!--! Font Awesome Pro 6.6.0 by @fontawesome - https://fontawesome.com License - https://fontawesome.com/license (Commercial License) Copyright 2024 Fonticons, Inc. --><path d="M93.2 38.9c-4-5.8-11.2-8.3-17.9-6.2S64 41 64 48l0 208-48 0c-8.8 0-16 7.2-16 16s7.2 16 16 16l48 0 0 176c0 8.8 7.2 16 16 16s16-7.2 16-16l0-176 130.7 0L354.8 473.1c4 5.8 11.2 8.3 17.9 6.2s11.2-8.3 11.2-15.3l0-176 48 0c8.8 0 16-7.2 16-16s-7.2-16-16-16l-48 0 0-208c0-8.8-7.2-16-16-16s-16 7.2-16 16l0 208-108.5 0L93.2 38.9zM265.6 288l86.4 0 0 124.8L265.6 288zm-61.1-32L96 256 96 99.2 204.5 256z"/></svg>

<svg xmlns="http://www.w3.org/2000/svg" viewBox="0 0 448 512"><!--! Font Awesome Pro 6.4.0 by @fontawesome - https://fontawesome.com License - https://fontawesome.com/license (Commercial License) Copyright 2023 Fonticons, Inc. --><path d="M93.2 38.9c-4-5.8-11.2-8.3-17.9-6.2S64 41 64 48V256H16c-8.8 0-16 7.2-16 16s7.2 16 16 16H64V464c0 8.8 7.2 16 16 16s16-7.2 16-16V288H226.7L354.8 473.1c4 5.8 11.2 8.3 17.9 6.2s11.2-8.3 11.2-15.3V288h48c8.8 0 16-7.2 16-16s-7.2-16-16-16H384V48c0-8.8-7.2-16-16-16s-16 7.2-16 16V256H243.5L93.2 38.9zM265.6 288H352V412.8L265.6 288zm-61.1-32H96V99.2L204.5 256z"/></svg>
